packages/web/src/assets/images/icons/history.svg

<svg fill="none" height="24" viewBox="0 0 24 24" width="24" xmlns="http://www.w3.org/2000/svg"><path d="m3 4.5v15h18v-12h-9.615l-3.006-3zm-.75-1.5h6.747l3.009 3h9.744c.1989 0 .3897.07902.5303.21967.1407.14065.2197.33142.2197.53033v13.5c0 .1989-.079.3897-.2197.5303-.1406.1407-.3314.2197-.5303.2197h-19.5c-.19891 0-.38968-.079-.53033-.2197-.14065-.1406-.21967-.3314-.21967-.5303v-16.5c0-.19891.07902-.38968.21967-.53033s.33142-.21967.53033-.21967z" fill="#606266"/></svg>

<svg width="24" height="24" viewBox="0 0 24 24" fill="none" xmlns="http://www.w3.org/2000/svg">
    <path d="M3 4.5V19.5H21V7.5H11.385L8.379 4.5H3ZM2.25 3H8.997L12.006 6H21.75C21.9489 6 22.1397 6.07902 22.2803 6.21967C22.421 6.36032 22.5 6.55109 22.5 6.75V20.25C22.5 20.4489 22.421 20.6397 22.2803 20.7803C22.1397 20.921 21.9489 21 21.75 21H2.25C2.05109 21 1.86032 20.921 1.71967 20.7803C1.57902 20.6397 1.5 20.4489 1.5 20.25V3.75C1.5 3.55109 1.57902 3.36032 1.71967 3.21967C1.86032 3.07902 2.05109 3 2.25 3Z" fill="#606266"/>
</svg>
